!!!OTL: Adelina.
!!!OTL-incipit: ES WAR SCHOEN ADELINA
!!!ARE: Europa, Mitteleuropa, Deutschland, Niederrhein
!!!SCT: Z1381
!!!TXL: @@DE
!!!YEM: Copyright 1995, estate of Helmut Schaffrath.
**kern	**text
*ICvox	*
*M2/4	*
*k[f#]	*
*e:	*
!LO:TX:a:t=Niederrhein.	!
{16eL	Es
16f#J	.
=1	=1
8g	war
8f#	ſchön
8g	A-
8a	-de-
=2	=2
16gL	-li-
16f#J	.
8e	-na
8r}	.
{8f#	von
=3	=3
8g	kö-
8f#	-nig-
8g	-li-
8a	-chem
=4	=4
4b;	Blut,
8r}	.
{8b	von
=5	=5
8b	weis-
8a	-heits-
8b	-vol-
8cc#	-lem
=6	=6
16ddL	Sin-
16cc#J	.
8b	-ne
8r}	.
{8b	und
=7	=7
16aL	reich
16gJ	.
8f#	an
8g	Ehr'
8a	und
=8	=8
(4b/	Gut,
8a)}	.
{16aL	und
16gJ	.
=9	=9
8e	reich
8f#	an
8g	Ehr'
8f#	und
=10	=10
4e	Gut!
8r}	.
==	==
!!!Ag: Erzaehlung, Romanze, Tod
!!!ONB: ESAC (Essen Associative Code) Database: ZUCCAL
!!!AMT: simple duple
!!!AIN: vox
!!!EED: Helmut Schaffrath
!!!EEV: 1.0
!!!GTL: Anhang ʒu den Gau- Lenſchen.
!!!URL-scan: https://www.digitale-sammlungen.de/de/view/bsb11160573?page=691
!!!ENC: Anna Maria Matuszewska
!!!EEV: 2025/02/07
*-	*-
